assets/icons/solid/book-medical.svg

<svg xmlns="http://www.w3.org/2000/svg" viewBox="0 0 448 512"><!--! Font Awesome Free 6.6.0 by @fontawesome - https://fontawesome.com License - https://fontawesome.com/license/free (Icons: CC BY 4.0, Fonts: SIL OFL 1.1, Code: MIT License) Copyright 2024 Fonticons, Inc. --><path d="M0 96C0 43 43 0 96 0L384 0l32 0c17.7 0 32 14.3 32 32l0 320c0 17.7-14.3 32-32 32l0 64c17.7 0 32 14.3 32 32s-14.3 32-32 32l-32 0L96 512c-53 0-96-43-96-96L0 96zM64 416c0 17.7 14.3 32 32 32l256 0 0-64L96 384c-17.7 0-32 14.3-32 32zM208 112l0 48-48 0c-8.8 0-16 7.2-16 16l0 32c0 8.8 7.2 16 16 16l48 0 0 48c0 8.8 7.2 16 16 16l32 0c8.8 0 16-7.2 16-16l0-48 48 0c8.8 0 16-7.2 16-16l0-32c0-8.8-7.2-16-16-16l-48 0 0-48c0-8.8-7.2-16-16-16l-32 0c-8.8 0-16 7.2-16 16z"/></svg>

<svg xmlns="http://www.w3.org/2000/svg" viewBox="0 0 448 512"><!--! Font Awesome Pro 6.2.0 by @fontawesome - https://fontawesome.com License - https://fontawesome.com/license (Commercial License) Copyright 2022 Fonticons, Inc. --><path d="M0 96C0 43 43 0 96 0H384h32c17.7 0 32 14.3 32 32V352c0 17.7-14.3 32-32 32v64c17.7 0 32 14.3 32 32s-14.3 32-32 32H384 96c-53 0-96-43-96-96V96zM64 416c0 17.7 14.3 32 32 32H352V384H96c-17.7 0-32 14.3-32 32zM208 112v48H160c-8.8 0-16 7.2-16 16v32c0 8.8 7.2 16 16 16h48v48c0 8.8 7.2 16 16 16h32c8.8 0 16-7.2 16-16V224h48c8.8 0 16-7.2 16-16V176c0-8.8-7.2-16-16-16H272V112c0-8.8-7.2-16-16-16H224c-8.8 0-16 7.2-16 16z"/></svg>
